.gitbook/assets/CI Debugger (1).svg

<svg width="27" height="27" viewBox="0 0 27 27" fill="none" xmlns="http://www.w3.org/2000/svg">
<g filter="url(#filter0_dd_101_261)">
<rect x="4" width="19" height="19" fill="#261F00"/>
<rect x="4.5" y="0.5" width="18" height="18" stroke="black"/>
<rect x="4.5" y="0.5" width="18" height="18" stroke="black" stroke-opacity="0.2"/>
</g>
<path fill-rule="evenodd" clip-rule="evenodd" d="M6.53333 5.21283C6.53333 3.73299 7.77241 2.53334 9.3009 2.53334H17.6991C19.2276 2.53334 20.4667 3.73299 20.4667 5.21283V9.83745C20.4667 10.1334 20.2188 10.3733 19.9131 10.3733H16.8013L15.3954 12.8075C15.2921 12.9864 15.0924 13.0925 14.8811 13.081C14.6697 13.0694 14.4837 12.9422 14.4018 12.7532L12.4945 8.35024L11.4845 10.099C11.3866 10.2684 11.2018 10.3733 11.0014 10.3733H7.64036V13.7872C7.64036 14.6751 8.38381 15.3949 9.30091 15.3949H17.6991C18.6162 15.3949 19.3596 14.6751 19.3596 13.7872V13.6341C19.3596 13.3381 19.6074 13.0982 19.9131 13.0982C20.2188 13.0982 20.4667 13.3381 20.4667 13.6341V13.7872C20.4667 15.267 19.2276 16.4667 17.6991 16.4667H9.30091C7.77241 16.4667 6.53333 15.267 6.53333 13.7872V9.83745C6.53333 9.54148 6.78114 9.30155 7.08684 9.30155H10.6767L12.0826 6.86742C12.1859 6.68855 12.3856 6.58238 12.5969 6.59393C12.8083 6.60548 12.9943 6.73272 13.0762 6.92171L14.9835 11.3247L15.9935 9.5759C16.0914 9.4065 16.2762 9.30155 16.4766 9.30155H19.3596V5.21283C19.3596 4.32492 18.6162 3.60514 17.6991 3.60514H9.3009C8.38381 3.60514 7.64036 4.32492 7.64036 5.21283V5.82528C7.64036 6.12125 7.39254 6.36118 7.08684 6.36118C6.78114 6.36118 6.53333 6.12125 6.53333 5.82528V5.21283Z" fill="#F2D664"/>
<defs>
<filter id="filter0_dd_101_261" x="0" y="0" width="27" height="27" filterUnits="userSpaceOnUse" color-interpolation-filters="sRGB">
<feFlood flood-opacity="0" result="BackgroundImageFix"/>
<feColorMatrix in="SourceAlpha" type="matrix" values="0 0 0 0 0 0 0 0 0 0 0 0 0 0 0 0 0 0 127 0" result="hardAlpha"/>
<feOffset dy="4"/>
<feGaussianBlur stdDeviation="2"/>
<feComposite in2="hardAlpha" operator="out"/>
<feColorMatrix type="matrix" values="0 0 0 0 0 0 0 0 0 0 0 0 0 0 0 0 0 0 0.25 0"/>
<feBlend mode="normal" in2="BackgroundImageFix" result="effect1_dropShadow_101_261"/>
<feColorMatrix in="SourceAlpha" type="matrix" values="0 0 0 0 0 0 0 0 0 0 0 0 0 0 0 0 0 0 127 0" result="hardAlpha"/>
<feOffset dy="4"/>
<feGaussianBlur stdDeviation="2"/>
<feComposite in2="hardAlpha" operator="out"/>
<feColorMatrix type="matrix" values="0 0 0 0 0 0 0 0 0 0 0 0 0 0 0 0 0 0 0.25 0"/>
<feBlend mode="normal" in2="effect1_dropShadow_101_261" result="effect2_dropShadow_101_261"/>
<feBlend mode="normal" in="SourceGraphic" in2="effect2_dropShadow_101_261" result="shape"/>
</filter>
</defs>
</svg>

<svg xmlns="http://www.w3.org/2000/svg" width="27" height="27" fill="none" viewBox="0 0 27 27"><g filter="url(#a)"><path fill="#261F00" d="M4 0h19v19H4z"/><path stroke="#000" d="M4.5.5h18v18h-18z"/><path stroke="#000" stroke-opacity=".2" d="M4.5.5h18v18h-18z"/></g><path fill="#F2D664" fill-rule="evenodd" d="M6.533 5.213c0-1.48 1.24-2.68 2.768-2.68h8.398c1.529 0 2.768 1.2 2.768 2.68v4.624a.545.545 0 0 1-.554.536h-3.112l-1.406 2.434a.558.558 0 0 1-.514.274.553.553 0 0 1-.48-.328L12.496 8.35l-1.01 1.749a.557.557 0 0 1-.484.274h-3.36v3.414c0 .888.743 1.608 1.66 1.608H17.7c.917 0 1.66-.72 1.66-1.608v-.153c0-.296.248-.536.554-.536.306 0 .554.24.554.536v.153c0 1.48-1.24 2.68-2.768 2.68H9.301c-1.529 0-2.768-1.2-2.768-2.68v-3.95c0-.296.248-.535.554-.535h3.59l1.406-2.435a.558.558 0 0 1 .514-.273.553.553 0 0 1 .48.328l1.906 4.403 1.01-1.75a.557.557 0 0 1 .484-.273h2.883v-4.09c0-.887-.744-1.607-1.66-1.607H9.3c-.916 0-1.66.72-1.66 1.608v.612a.545.545 0 0 1-.553.536.545.545 0 0 1-.554-.536v-.612Z" clip-rule="evenodd"/><defs><filter id="a" width="27" height="27" x="0" y="0" color-interpolation-filters="sRGB" filterUnits="userSpaceOnUse"><feFlood flood-opacity="0" result="BackgroundImageFix"/><feColorMatrix in="SourceAlpha" result="hardAlpha" values="0 0 0 0 0 0 0 0 0 0 0 0 0 0 0 0 0 0 127 0"/><feOffset dy="4"/><feGaussianBlur stdDeviation="2"/><feComposite in2="hardAlpha" operator="out"/><feColorMatrix values="0 0 0 0 0 0 0 0 0 0 0 0 0 0 0 0 0 0 0.25 0"/><feBlend in2="BackgroundImageFix" result="effect1_dropShadow_101_261"/><feColorMatrix in="SourceAlpha" result="hardAlpha" values="0 0 0 0 0 0 0 0 0 0 0 0 0 0 0 0 0 0 127 0"/><feOffset dy="4"/><feGaussianBlur stdDeviation="2"/><feComposite in2="hardAlpha" operator="out"/><feColorMatrix values="0 0 0 0 0 0 0 0 0 0 0 0 0 0 0 0 0 0 0.25 0"/><feBlend in2="effect1_dropShadow_101_261" result="effect2_dropShadow_101_261"/><feBlend in="SourceGraphic" in2="effect2_dropShadow_101_261" result="shape"/></filter></defs></svg>
